<?xml version="1.0" encoding="UTF-8"?>
<map version="1.9" tiledversion="1.9.0" orientation="orthogonal" renderorder="right-down" width="20" height="12" tilewidth="64" tileheight="64" infinite="0" nextlayerid="7" nextobjectid="3">
 <tileset firstgid="1" source="TowerDefMap.tsx"/>
 <layer id="1" name="Dirt" width="20" height="12">
  <data encoding="csv">
16,16,16,16,16,16,16,16,16,16,16,16,16,16,16,16,16,16,16,16,
16,16,16,16,16,16,16,16,16,16,16,16,16,16,16,16,16,16,16,16,
16,16,16,16,16,16,16,16,16,16,16,16,16,16,16,16,16,16,16,16,
16,16,16,16,16,16,16,16,16,16,16,16,16,16,16,16,16,16,16,16,
16,16,16,16,16,16,16,16,16,16,16,16,16,16,16,16,16,16,16,16,
16,16,16,16,16,16,16,16,16,16,16,16,16,16,16,16,16,16,16,16,
16,16,16,16,16,16,16,16,16,16,16,16,16,16,16,16,16,16,16,16,
16,16,16,16,16,16,16,16,16,16,16,16,16,16,16,16,16,16,16,16,
16,16,16,16,16,16,16,16,16,16,16,16,16,16,16,16,16,16,16,16,
16,16,16,16,16,16,16,16,16,16,16,16,16,16,16,16,16,16,16,16,
16,16,16,16,16,16,16,16,16,16,16,16,16,16,16,16,16,16,16,16,
16,16,16,16,16,16,16,16,16,16,16,16,16,16,16,16,16,16,16,16
</data>
 </layer>
 <layer id="2" name="Path" width="20" height="12">
  <data encoding="csv">
0,0,0,0,0,0,0,0,0,0,0,0,0,0,0,0,0,0,0,0,
0,0,0,0,4,5,5,5,5,5,5,5,5,5,6,0,0,0,0,0,
0,0,0,0,18,19,19,19,19,19,19,19,19,19,20,0,0,0,0,0,
0,0,0,0,18,19,22,33,33,33,33,33,21,19,20,0,0,0,0,0,
0,0,0,0,18,19,20,0,0,0,0,0,18,19,20,0,0,0,0,0,
0,0,0,0,18,19,20,0,0,4,5,5,7,19,20,0,4,5,5,5,
0,0,0,0,18,19,20,0,0,18,19,19,19,19,20,0,18,19,19,19,
5,5,5,5,7,19,20,0,0,18,19,22,33,33,34,0,18,19,22,33,
19,19,19,19,19,19,20,0,0,18,19,20,0,0,0,0,18,19,20,0,
33,33,33,33,33,33,34,0,0,18,19,8,5,5,5,5,7,19,20,0,
0,0,0,0,0,0,0,0,0,18,19,19,19,19,19,19,19,19,20,0,
0,0,0,0,0,0,0,0,0,32,33,33,33,33,33,33,33,33,34,0
</data>
 </layer>
 <layer id="3" name="Details 1" width="20" height="12">
  <data encoding="csv">
49,49,0,0,0,0,0,0,0,0,0,0,0,0,0,119,120,121,127,128,
0,0,0,0,0,0,0,0,0,0,0,0,0,0,0,133,134,135,141,142,
0,0,0,0,0,0,0,0,0,0,0,0,0,0,0,147,148,149,0,0,
0,0,0,0,0,0,0,0,0,0,0,0,0,0,0,0,0,0,0,0,
0,0,0,0,0,0,0,0,0,0,0,0,0,0,0,0,0,0,0,0,
0,0,0,0,0,0,0,0,0,0,0,0,0,0,0,0,0,0,0,0,
47,0,0,0,0,0,0,0,0,0,0,0,0,0,0,0,0,0,0,0,
0,0,0,0,0,0,0,0,0,0,0,0,0,0,0,0,0,0,0,0,
0,0,0,0,0,0,0,0,0,0,0,0,47,0,0,0,0,0,0,0,
0,0,0,0,0,0,0,0,0,0,0,0,0,0,0,0,0,0,0,0,
0,0,0,0,0,0,0,0,0,0,0,0,0,0,0,0,0,0,0,0,
0,0,0,0,0,0,0,0,0,0,0,0,0,0,0,0,0,0,0,0
</data>
 </layer>
 <layer id="4" name="Details 2" width="20" height="12">
  <data encoding="csv">
0,58,0,0,0,44,0,49,0,0,0,48,0,0,0,0,0,49,58,0,
0,72,0,0,0,0,0,0,0,0,0,0,0,0,0,57,0,0,72,0,
0,0,0,0,0,0,0,0,0,0,0,0,0,0,0,71,0,48,0,0,
0,44,0,0,0,0,0,0,0,0,0,0,0,0,0,0,0,0,0,44,
0,58,0,0,0,0,0,0,0,0,0,0,0,0,0,0,0,0,0,0,
0,72,0,0,0,0,0,0,0,0,0,0,0,0,0,0,0,0,0,0,
0,0,0,0,0,0,0,0,0,0,0,0,0,0,0,0,0,0,0,0,
0,0,0,0,0,0,0,0,0,0,0,0,0,0,0,0,0,0,0,0,
0,0,0,0,0,0,0,0,0,0,0,0,0,0,0,0,0,0,0,58,
0,0,0,0,0,0,0,0,0,0,0,0,0,0,0,0,0,0,0,72,
43,43,0,0,0,0,0,0,0,0,0,0,0,0,0,0,0,0,0,93,
0,0,0,0,0,0,0,44,0,0,0,0,0,0,0,0,0,0,0,107
</data>
 </layer>
 <layer id="5" name="Details 3" width="20" height="12">
  <data encoding="csv">
57,0,0,0,0,0,0,0,0,0,0,0,0,0,0,0,0,0,0,0,
71,0,0,0,0,0,0,0,0,0,0,0,0,0,0,0,0,0,0,0,
0,0,0,0,0,0,0,0,0,0,0,0,0,0,0,0,0,0,0,0,
0,0,0,0,0,0,0,0,0,0,0,0,0,0,0,0,0,0,0,0,
0,0,0,0,0,0,0,0,0,0,0,0,0,0,0,0,0,0,0,0,
0,0,0,0,0,0,0,0,0,0,0,0,0,0,0,0,0,0,0,0,
0,0,0,0,0,0,0,0,0,0,0,0,0,0,0,0,0,0,0,0,
0,0,0,0,0,0,0,0,0,0,0,0,0,0,0,0,0,0,0,0,
0,0,0,0,0,0,0,0,0,0,0,0,0,0,0,0,0,0,0,0,
0,0,0,0,0,0,0,0,0,0,0,0,0,0,0,0,0,0,0,0,
87,88,0,0,0,0,0,0,0,0,0,0,0,0,0,0,0,0,0,0,
101,102,0,0,0,0,0,0,0,0,0,0,0,0,0,0,0,0,0,0
</data>
 </layer>
 <objectgroup id="6" name="Object Layer 1">
  <object id="1" x="0" y="0">
   <polyline points="0,0 -149.333,537.333 357.333,540 357.333,152 866.667,152 868,425.333 662.667,424 665.333,686.667 1122.67,681.333 1121.33,409.333 1421.33,414.667"/>
  </object>
 </objectgroup>
</map>
